svg/wifi_arrow_down.svg

<svg xmlns="http://www.w3.org/2000/svg" viewBox="0 0 24 24"><path d="M12 6C8.62 6 5.5 7.12 3 9L1.2 6.6C4.21 4.34 7.95 3 12 3s7.79 1.34 10.8 3.6L21 9c-2.5-1.88-5.62-3-9-3m0 9c-1.35 0-2.6.45-3.6 1.2L12 21l1.04-1.39c-.04-.2-.04-.4-.04-.61 0-1.34.44-2.57 1.19-3.57-.69-.27-1.42-.43-2.19-.43m4.84-1.59c.34-.14.71-.24 1.08-.31l1.28-1.7C17.19 9.89 14.7 9 12 9s-5.19.89-7.2 2.4l1.8 2.4C8.1 12.67 9.97 12 12 12c1.78 0 3.44.5 4.84 1.41M20 16h-2v4h-2l3 3 3-3h-2z"/></svg>

<?xml version="1.0" encoding="UTF-8"?><!DOCTYPE svg PUBLIC "-//W3C//DTD SVG 1.1//EN" "http://www.w3.org/Graphics/SVG/1.1/DTD/svg11.dtd"><svg xmlns="http://www.w3.org/2000/svg" xmlns:xlink="http://www.w3.org/1999/xlink" version="1.1" id="mdi-wifi-arrow-down" width="24" height="24" viewBox="0 0 24 24"><path d="M12 6C8.62 6 5.5 7.12 3 9L1.2 6.6C4.21 4.34 7.95 3 12 3S19.79 4.34 22.8 6.6L21 9C18.5 7.12 15.38 6 12 6M12 15C10.65 15 9.4 15.45 8.4 16.2L12 21L13.04 19.61C13 19.41 13 19.21 13 19C13 17.66 13.44 16.43 14.19 15.43C13.5 15.16 12.77 15 12 15M16.84 13.41C17.18 13.27 17.55 13.17 17.92 13.1L19.2 11.4C17.19 9.89 14.7 9 12 9S6.81 9.89 4.8 11.4L6.6 13.8C8.1 12.67 9.97 12 12 12C13.78 12 15.44 12.5 16.84 13.41M20 16H18V20H16L19 23L22 20H20V16Z" /></svg>
